X:1
T:Condor Passing Study
C:Original Andean-style study
S:Public domain or original as noted in notes.md
M:2/4
L:1/8
Q:1/4=92
K:G
H:G pentatonic starter arrangement for Andean Duct Flutes (G). Refs #1
G A B d | e2 d2 | B A G A | B4 |
d e g e | d2 B2 | A B d B | G4 |
G A B d | e d B A | G A B d | e4 |
g e d B | A B d B | G2 A2 | G4 |]
